docs/img/backgrounds/oblique-lines-bg.svg

<svg xmlns="http://www.w3.org/2000/svg" version="1.1" xmlns:xlink="http://www.w3.org/1999/xlink" xmlns:svgjs="http://svgjs.com/svgjs" width="1230" height="245" preserveAspectRatio="none" viewBox="0 0 1230 245"><g mask="url(&quot;#SvgjsMask1087&quot;)" fill="none"><path d="M40 245L285 0L493.5 0L248.5 245z" fill="url(#SvgjsLinearGradient1088)"></path><path d="M235.95000000000002 245L480.95000000000005 0L584.45 0L339.45000000000005 245z" fill="url(#SvgjsLinearGradient1088)"></path><path d="M428.90000000000003 245L673.9000000000001 0L918.4000000000001 0L673.4000000000001 245z" fill="url(#SvgjsLinearGradient1088)"></path><path d="M619.85 245L864.85 0L939.85 0L694.85 245z" fill="url(#SvgjsLinearGradient1088)"></path><path d="M1223 245L978 0L799.5 0L1044.5 245z" fill="url(#SvgjsLinearGradient1089)"></path><path d="M1020.05 245L775.05 0L590.55 0L835.55 245z" fill="url(#SvgjsLinearGradient1089)"></path><path d="M800.0999999999999 245L555.0999999999999 0L310.5999999999999 0L555.5999999999999 245z" fill="url(#SvgjsLinearGradient1089)"></path><path d="M612.15 245L367.15 0L275.65 0L520.65 245z" fill="url(#SvgjsLinearGradient1089)"></path><path d="M999.5137825763119 245L1230 14.513782576311911L1230 245z" fill="url(#SvgjsLinearGradient1088)"></path><path d="M0 245L230.4862174236881 245L 0 14.513782576311911z" fill="url(#SvgjsLinearGradient1089)"></path></g><defs><mask id="SvgjsMask1087"><rect width="1230" height="245" fill="#ffffff"></rect></mask><linearGradient x1="0%" y1="100%" x2="100%" y2="0%" id="SvgjsLinearGradient1088"><stop stop-color="rgba(33, 150, 243, 0.09)" offset="0"></stop><stop stop-opacity="0" stop-color="rgba(33, 150, 243, 0.09)" offset="0.66"></stop></linearGradient><linearGradient x1="100%" y1="100%" x2="0%" y2="0%" id="SvgjsLinearGradient1089"><stop stop-color="rgba(33, 150, 243, 0.09)" offset="0"></stop><stop stop-opacity="0" stop-color="rgba(33, 150, 243, 0.09)" offset="0.66"></stop></linearGradient></defs></svg>

<svg xmlns="http://www.w3.org/2000/svg" width="1230" height="245" preserveAspectRatio="none"><g mask="url(&quot;#SvgjsMask1087&quot;)" fill="none"><path d="M40 245L285 0h208.5l-245 245z" fill="url(#SvgjsLinearGradient1088)"/><path d="M235.95 245l245-245h103.5l-245 245zm192.95 0l245-245h244.5l-245 245z" fill="url(#SvgjsLinearGradient1088)"/><path d="M619.85 245l245-245h75l-245 245z" fill="url(#SvgjsLinearGradient1088)"/><path d="M1223 245L978 0H799.5l245 245zm-202.95 0l-245-245h-184.5l245 245zm-219.95 0L555.1 0H310.6l245 245z" fill="url(#SvgjsLinearGradient1089)"/><path d="M612.15 245l-245-245h-91.5l245 245z" fill="url(#SvgjsLinearGradient1089)"/><path d="M999.514 245L1230 14.514V245z" fill="url(#SvgjsLinearGradient1088)"/><path d="M0 245h230.486L0 14.514z" fill="url(#SvgjsLinearGradient1089)"/></g><defs><linearGradient x1="0%" y1="100%" x2="100%" y2="0%" id="SvgjsLinearGradient1088"><stop stop-color="rgba(33, 150, 243, 0.09)" offset="0"/><stop stop-opacity="0" stop-color="rgba(33, 150, 243, 0.09)" offset=".66"/></linearGradient><linearGradient x1="100%" y1="100%" x2="0%" y2="0%" id="SvgjsLinearGradient1089"><stop stop-color="rgba(33, 150, 243, 0.09)" offset="0"/><stop stop-opacity="0" stop-color="rgba(33, 150, 243, 0.09)" offset=".66"/></linearGradient><mask id="SvgjsMask1087"><path fill="#fff" d="M0 0h1230v245H0z"/></mask></defs></svg>
